svg/fluentui-system-icons/ic_fluent_briefcase_32_filled.svg

<svg width="32" height="32" viewBox="0 0 32 32" fill="none" xmlns="http://www.w3.org/2000/svg">
<path d="M13 5H19C19.5523 5 20 5.44772 20 6V8H12V6C12 5.44772 12.4477 5 13 5ZM10 6V8H7.5C5.01472 8 3 10.0147 3 12.5V14C3 15.6569 4.34315 17 6 17H13V16.5C13 15.6716 13.6716 15 14.5 15H17.5C18.3284 15 19 15.6716 19 16.5V17H26C27.6569 17 29 15.6569 29 14V12.5C29 10.0147 26.9853 8 24.5 8H22V6C22 4.34315 20.6569 3 19 3H13C11.3431 3 10 4.34315 10 6ZM13 19V19.5C13 20.3284 13.6716 21 14.5 21H17.5C18.3284 21 19 20.3284 19 19.5V19H26C27.1256 19 28.1643 18.6281 29 18.0004V23.5C29 25.9853 26.9853 28 24.5 28H7.5C5.01472 28 3 25.9853 3 23.5V18.0004C3.83566 18.6281 4.87439 19 6 19H13Z" fill="#212121"/>
</svg>

<svg xmlns="http://www.w3.org/2000/svg" width="32" height="32"><path d="M13 5h6a1 1 0 0 1 1 1v2h-8V6a1 1 0 0 1 1-1Zm-3 1v2H7.5A4.5 4.5 0 0 0 3 12.5V14a3 3 0 0 0 3 3h7v-.5a1.5 1.5 0 0 1 1.5-1.5h3a1.5 1.5 0 0 1 1.5 1.5v.5h7a3 3 0 0 0 3-3v-1.5A4.5 4.5 0 0 0 24.5 8H22V6a3 3 0 0 0-3-3h-6a3 3 0 0 0-3 3Zm3 13v.5a1.5 1.5 0 0 0 1.5 1.5h3a1.5 1.5 0 0 0 1.5-1.5V19h7a4.978 4.978 0 0 0 3-1v5.5a4.5 4.5 0 0 1-4.5 4.5h-17A4.5 4.5 0 0 1 3 23.5V18c.836.628 1.874 1 3 1h7Z"/></svg>
